Origami/32x32/apps/gpk-log.svg

<svg width="32" height="32" version="1" xmlns="http://www.w3.org/2000/svg">
 <rect transform="matrix(0,-1,-1,0,0,0)" x="-30" y="-30" width="28" height="28" rx="1.5" ry="1.5" fill="#fabd7f"/>
 <path d="m3.5 2c-0.831 0-1.5 0.669-1.5 1.5v1c0-0.831 0.669-1.5 1.5-1.5h25c0.831 0 1.5 0.669 1.5 1.5v-1c0-0.831-0.669-1.5-1.5-1.5h-25z" fill="#fff" opacity=".1"/>
 <path d="m14.572 6c-0.39572 0-0.71484 0.34338-0.71484 0.76953v12.307h-2.8574l5 6.924 5-6.9238h-2.8574v-12.307c0-0.4256-0.32-0.769-0.715-0.769z" fill="#3f3f3f"/>
 <path d="m2 28.5v1c0 0.831 0.669 1.5 1.5 1.5h25c0.831 0 1.5-0.669 1.5-1.5v-1c0 0.831-0.669 1.5-1.5 1.5h-25c-0.831 0-1.5-0.669-1.5-1.5z" opacity=".2"/>
 <rect transform="matrix(0,-1,-1,0,0,0)" x="-32" y="-32" width="15" height="15" rx=".804" ry=".804" style="opacity:.2"/>
 <rect transform="matrix(0,-1,-1,0,0,0)" x="-31" y="-32" width="15" height="15" rx=".804" ry=".804" style="fill:#cccccc"/>
 <path d="m19 18v3h11v-3h-11zm0 4v3h11v-3h-11zm0 4v3h11v-3h-11z" style="fill:#3f3f3f"/>
</svg>

<svg xmlns="http://www.w3.org/2000/svg" width="32" height="32" version="1">
 <rect fill="#fabd7f" width="28" height="28" x="-30" y="-30" rx="1.5" ry="1.5" transform="matrix(0,-1,-1,0,0,0)"/>
 <path fill="#fff" opacity=".1" d="m3.5 2c-0.831 0-1.5 0.669-1.5 1.5v1c0-0.831 0.669-1.5 1.5-1.5h25c0.831 0 1.5 0.669 1.5 1.5v-1c0-0.831-0.669-1.5-1.5-1.5h-25z"/>
 <path fill="#3f3f3f" d="m14.572 6c-0.39572 0-0.71484 0.34338-0.71484 0.76953v12.307h-2.8574l5 6.924 5-6.9238h-2.8574v-12.307c0-0.4256-0.32-0.769-0.715-0.769z"/>
 <path opacity=".2" d="m2 28.5v1c0 0.831 0.669 1.5 1.5 1.5h25c0.831 0 1.5-0.669 1.5-1.5v-1c0 0.831-0.669 1.5-1.5 1.5h-25c-0.831 0-1.5-0.669-1.5-1.5z"/>
 <rect style="opacity:0.2" width="15" height="15" x="-32" y="-32" rx=".804" ry=".804" transform="matrix(0,-1,-1,0,0,0)"/>
 <rect style="fill:#cccccc" width="15" height="15" x="-31" y="-32" rx=".804" ry=".804" transform="matrix(0,-1,-1,0,0,0)"/>
 <path style="fill:#3f3f3f" d="M 19 18 L 19 21 L 30 21 L 30 18 L 19 18 z M 19 22 L 19 25 L 30 25 L 30 22 L 19 22 z M 19 26 L 19 29 L 30 29 L 30 26 L 19 26 z"/>
</svg>
